icon/pk/wind.svg

<svg viewBox="0 0 48 48" fill="none" xmlns="http://www.w3.org/2000/svg" height="1em" width="1em">
  <path d="M12 17H10C7.79086 17 6 18.7909 6 21V21C6 23.2091 7.79086 25 10 25H12" stroke="black" stroke-width="4" stroke-linecap="round" stroke-linejoin="round"/>
  <path d="M22 33H19C16.7909 33 15 34.7909 15 37V37C15 39.2091 16.7909 41 19 41H22" stroke="black" stroke-width="4" stroke-linecap="round" stroke-linejoin="round"/>
  <path d="M27 7H24C21.7909 7 20 8.79086 20 11V11C20 13.2091 21.7909 15 24 15H27" stroke="black" stroke-width="4" stroke-linecap="round" stroke-linejoin="round"/>
  <path d="M24 15H40" stroke="black" stroke-width="4" stroke-linecap="round" stroke-linejoin="round"/>
  <path d="M12 25H42" stroke="black" stroke-width="4" stroke-linecap="round" stroke-linejoin="round"/>
  <path d="M22 33H34" stroke="black" stroke-width="4" stroke-linecap="round" stroke-linejoin="round"/>
</svg>

<svg width="48" height="48" fill="none" xmlns="http://www.w3.org/2000/svg"><path d="M12 17h-2a4 4 0 0 0-4 4v0a4 4 0 0 0 4 4h2M22 33h-3a4 4 0 0 0-4 4v0a4 4 0 0 0 4 4h3M27 7h-3a4 4 0 0 0-4 4v0a4 4 0 0 0 4 4h3M24 15h16M12 25h30M22 33h12" stroke="#000" stroke-width="4" stroke-linecap="round" stroke-linejoin="round"/></svg>
